X:1
T:Missa a cuatro voces
T:Juan Matias de Rivera (16?? to 17??)
T:From a printed source (no 9-014) in the Música Colonial archive in Guatemala Cathedral
T:Missa a cuatro voces
T:1. Kyrie
T:Copyright © 
T:Copyright © 
T:Copyright © 
C:Juan Matias de Rivera (16?? to 17??)
Z:From a printed source (no 9-014) in the
Z:Música Colonial archive in Guatemala Cathedral
Z:Copyright ©
%%score [ 1 2 3 4 ]
L:1/8
M:4/4
K:C
V:1 treble nm="Soprano" snm="S."
V:2 treble nm="Alto" snm="A."
V:3 treble-8 transpose=-12 nm="Tenor" snm="T."
V:4 bass nm="Bass" snm="B."
V:1
 z8 | z4 z2 A2 | F2 G2 A4 | G2 G2 c2 BA | ^G2 A4 G2 | A4 z2 c2 | c2 A2 d4 |[M:3/2] c2 B3 A A4 ^G2 | %8
w: |Ky-|ri- e\_e- lei-|son, ky- ri- e _|_ e- lei-|son, ky-|ri- e e-|* * * * lei-|
[M:4/4] A8 ||[M:4/4] z8 | z4 e4 | c2 d2 B4 | c2 A2 A2 d2 | B4 c2 e2 | f2 d4 c2 | d4 z2 G2 | %16
w: son.||Chris-|te e- lei-|son, Chris- te e-|lei- son, Chris-|te- e- lei-|son, Chris-|
 AB cA B2 G2 | cB AG F3 G |[M:3/2] A2 ^G2 A8 |[M:4/4] ^G8 || c4 c2 B2 | A4 A2 A2 | B2 G2 c4 | %23
w: te _ _ _ _ _|_ _ _ _ e- *|* * lei-|son.|Ky- ri- e\_e-|lei- son, ky-|ri- e\_e- lei-|
 B2 B2 c2 A2 | G8 | G4 z4 | z4 z2 G2 | A2 B2 c4 | B2 B2 A2 A2 | A8 | A4 z2 c2 | %31
w: son, ky- ri- e\_e-|lei-|son,|ky-|ri- e\_e- lei-|son, ky- ri- e\_e-|lei-|son, ky-|
[M:3/2] B2 A2 ^G2 A4 G2 |[M:4/4] A8 |] %33
w: ri- e _ e- lei-|son.|
V:2
 A4 A2 G2 | E4 F4 | z8 | z2 E2 E2 F2 | E8 | E2 A2 F2 G2 | A4 D2 G2 |[M:3/2] E2 F2 E8 |[M:4/4] E8 || %9
w: Ky- ri- e\_e-|lei- son,||ky- ri- e\_e-|lei-|son, ky- ri- e\_e-|lei- son, ky-|ri- e\_e- lei-|son.|
[M:4/4] G4 A2 F2 | G4 A2 G2 | F2 F2 E4 | E2 E2 F2 A2- | A2 ^G2 A4 | z2 G2 G4 | F2 F2 G2 G2- | %16
w: Chris- te e-|lei son, Chris-|te e- lei-|son, Chris- te\_e- lei-|* * son,|Chris- te|e- lei- son, Chris-|
 G2 F2 G2 D2 | E2 C2 D4 |[M:3/2] E2 E4 DC D4 |[M:4/4] E8 || A4 A2 G2 | E4 F2 F2 | D2 E2 F4 | %23
w: * te _ _|_ e- lei-|son, e- * * lei-|son.|Ky- ri- e\_e-|lei- son, ky-|ri- e\_e- lei-|
 G2 G2 G2 FE | D2 E4 D2 | E2 E2 F2 G2 | A4 G4 | z8 | z2 G2 F2 F2- | F2 ED E4 | F2 F2 G2 A2- | %31
w: son, ky- ri- e _|_ e- lei-|son, ky- ri- e\_e-|lei- son,||ky- ri- e|_ e- * lei-|son, ky- ri- e|
[M:3/2] AG F2 E8 |[M:4/4] E8 |] %33
w: _ e- lei- son.||
V:3
 e4 f2 d2- | d2 c2 d4 | z2 e2 c2 d2 | e4 c2 d2 | d2 c2 B4 | c4 z2 e2 | c2 d2 B4 | %7
w: Ky- ri- e\_e-|* lei- son,|ky- ri- e\_e-|lei- son, ky-|ri- e\_e- lei-|son, ky-|ri- e\_e- lei-|
[M:3/2] c2 d2 d2 c2 B4 |[M:4/4] A8 ||[M:4/4] e4 c2 d2 | B4 c4 | z8 | z2 A2 d2 d2 | e4 A2 c2 | %14
w: son, ky- ri- e\_e- lei-|son.|Chris- te e-|lei- son,||Chris- te e-|lei- son, Chris-|
 d2 d2 e4 | A2 d2 d2 e2 | c4 d2 B2 | c2 c4 B2 |[M:3/2] c4 A8 |[M:4/4] B8 || e4 f2 d2- | d2 c2 d4 | %22
w: te e- lei-|son, Chris- te e-|lei- son, Chris-|te\_e- lei- son,|e- lei-||Ky- ri- e\_e-|* lei- son,|
 z8 | z2 d2 e2 dc | B2 c4 B2 | c2 c2 d2 e2 | f4 e4 | z8 | z2 e2 c2 d2- | d2 ^cB c4 | d2 d2 e4 | %31
w: |ky- ri- e- *|e- lei- *|son, ky- ri- e\_e-|lei- son,||ky- ri- e|_ e- * lei-|son, ky- ri-|
[M:3/2] d6 c2 B4 |[M:4/4] A8 |] %33
w: e e- lei-|son.|
V:4
 A,4 F,2 G,2 | A,4 D,2 D,2 | D,2 E,2 F,4 | E,2 E,2 A,2 D,2 | E,8 | A,2 A,2 D2 CB, | A,G, F,2 G,4 | %7
w: Ky- ri- e\_e-|lei- son, ky-|ri- e\_e- lei-|son, ky- ri- e\_e-|lei-|son, ky- ri- e _|_ _ _ _|
[M:3/2] A,2 D,2 E,8 |[M:4/4] A,8 ||[M:4/4] E,4 F,2 D,2 | E,4 A,2 E,2 | F,2 D,2 E,4 | A,4 z4 | %13
w: * e- lei-|son.|Chris- te e-|lei- son, Chris-|te e- lei-|son,|
 z4 z2 A,2 | F,2 G,2 E,4 | D,2 D2 B,2 C2 | A,4 G,2 G,2 | E,2 F,2 D,4 |[M:3/2] C,4 F,8 | %19
w: Chris-|te e- lei-|son, Chris- te e-|lei- son, Chris-|te _ _|e- lei-|
[M:4/4] E,8 || A,4 F,2 G,2 | A,4 D,2 D2 | B,2 C2 A,4 | G,2 G,2 E,2 F,2 | G,8 | C,4 z4 | z4 z2 E,2 | %27
w: son.|Ky- ri- e\_e-|lei- son, ky-|ri- e\_e- lei-|son, ky- ri- e\_e-|lei-|son,|ky-|
 F,2 G,2 A,4 | G,2 E,2 F,2 D,2 | A,8 | D,4 C,4 |[M:3/2] D,2 D,2 E,8 |[M:4/4] A,8 |] %33
w: ri- e\_e- lei-|son, ky- ri- e\_e-|lei-|son, ky-|ri- e\_e- lei-|son.|

